X:1
T:Title
%%score { ( 1 3 ) | ( 2 4 ) }
L:1/8
Q:1/4=78
M:6/8
K:Eb
V:1 treble nm="Grand Piano"
V:3 treble 
V:2 bass 
V:4 bass 
V:1
 GFE D A2 | AGF E3 | BAG F c2 | FGF F3 | GAG G c2 | dGA G3 | FGF FBd | edc B3 | %8
w: May~Agnew~Stephens * * * *||||||||
 [EGB][EGc]>[B,EG] [B,GB]C>G, | z3 B3 | [GB][Ac][Ad] [Ee]2 [GB] | %11
w: |||
[M:13/16] z/ z/ z/ z/ z B/-B/-B/-B-<B |[M:3/4] Bc- c/G/[B,GB] C>G, | z2 z B3 | %14
w: |||
[M:13/16] [Ge][Gd]_dc-<c[E=B]3/2[Q:1/4=77][Q:1/4=76][Q:1/4=75][Q:1/4=73][Q:1/4=72][Q:1/4=71][Q:1/4=70][Q:1/4=69][Q:1/4=68] | %15
w: |
[M:15/16] z B/-B/ z z3/2 z3[Q:1/4=67][Q:1/4=65][Q:1/4=64][Q:1/4=63][Q:1/4=62][Q:1/4=61][Q:1/4=60] |] %16
w: |
V:2
 B,A,G, F, C2 | CB,A, G,3 | G,F,E, A, A,2 | =A,A,E D3 | =B,B,B, C E2 | =B,B,B, C3 | %6
 =A,A,A, B,2 _A, | G,F,E D3 | E,E,>E, E,E,>E, | DD>D B,,C,D, | [E,E][E,E][F,B,] [G,B,]2 [E,E] | %11
[M:13/16] [E,B,][C,=A,]>[F,A,]B,,-[B,,-G,][B,,_A,]3/2 | %12
[M:3/4] [E,G,E][E,G,E]- [E,G,E]/[E,B,E]/E, E,>E, | DD- D/D/[B,,F,] [C,B,][D,B,] | %14
[M:13/16] [E,B,][F,B,][G,B,E][A,E]-<[A,E][A,,A,]3/2 |[M:15/16] z F,/ z3/2 z3/2 z3 |] %16
V:3
 x6 | x6 | x6 | x6 | x6 | x6 | x6 | x6 | x6 | Bc>F DEF | x6 |[M:13/16] [EG][EF]>[EF]DEF3/2 | %12
[M:3/4] x6 | Bc- c/F/D EF |[M:13/16] x13/2 |[M:15/16] [EB]D/[G,E]/[FB][EB]3/2- [EB]3 |] %16
V:4
 x6 | x6 | x6 | x6 | x6 | x6 | x6 | x6 | x6 | .[F,A,-]3 A,3 | x6 | %11
[M:13/16] z/ z/ z/ z/ z .F,3/2 z/ z/ z |[M:3/4] x6 | [F,A,]4 z2 |[M:13/16] x13/2 | %15
[M:15/16] [B,,G,]B,,/-B,,/[B,,A,][E,G,]3/2- [E,G,]3 |] %16

